icons/fill-new-time-hourglass-full.svg

<svg xmlns="http://www.w3.org/2000/svg" width="32px" height="32px" viewBox="0 0 32 32" version="1.1">
    <title>fill-new-time-hourglass-full</title>
    <g id="fill-new-time-hourglass-full" stroke-width="1" fill-rule="evenodd">
        <path d="M27,2 C27.5522847,2 28,2.44771525 28,3 C28,3.55228475 27.5522847,4 27,4 L25.8843048,3.99967651 L25.8035084,4.53209563 L25.736157,4.92751733 C25.1725392,8.09238686 23.494575,14.2174138 18.8093209,16.0012448 C24.0110021,17.9796759 25.5059063,25.3106928 25.8844487,28.001363 L27,28 C27.5522847,28 28,28.4477153 28,29 C28,29.5522847 27.5522847,30 27,30 L5,30 C4.44771525,30 4,29.5522847 4,29 C4,28.4477153 4.44771525,28 5,28 L6.11553068,28.0014929 L6.197183,27.4636528 L6.26697929,27.0549056 C6.82700709,23.9222763 8.47470486,17.9225246 13.0268891,16.0633713 C9.07993387,14.8005403 6.76668111,10.7794521 6.08705522,4.0015548 L5,4 C4.44771525,4 4,3.55228475 4,3 C4,2.44771525 4.44771525,2 5,2 L27,2 Z M21,24 L11,24 C10.4477153,24 10,24.4477153 10,25 C10,25.5522847 10.4477153,26 11,26 L21,26 C21.5522847,26 22,25.5522847 22,25 C22,24.4477153 21.5522847,24 21,24 Z M20,8 L12,8 C11.4477153,8 11,8.44771525 11,9 C11,9.55228475 11.4477153,10 12,10 L20,10 C20.5522847,10 21,9.55228475 21,9 C21,8.44771525 20.5522847,8 20,8 Z" id="&#24418;&#29366;" fill-rule="nonzero" />
    </g>
</svg>

<svg xmlns="http://www.w3.org/2000/svg" viewBox="0 0 32 32"><path fill="currentColor" d="M27 2a1 1 0 0 1 0 2h-1.116l-.08.532-.068.396c-.563 3.164-2.241 9.29-6.927 11.073 5.202 1.979 6.697 9.31 7.075 12L27 28a1 1 0 0 1 0 2H5a1 1 0 0 1 0-2l1.116.001.081-.537.07-.41c.56-3.132 2.208-9.131 6.76-10.99-3.947-1.263-6.26-5.285-6.94-12.062L5 4a1 1 0 1 1 0-2zm-6 22H11a1 1 0 0 0 0 2h10a1 1 0 0 0 0-2M20 8h-8a1 1 0 0 0 0 2h8a1 1 0 0 0 0-2"/></svg>
